X: 1378
T: The Mills are Grinding
M:C|
L:1/8
N:"1st Setting" "collected by J. O'Neill"
B:O'Neill's 1378
Z:"Transcribed by Bob Safranek, rjs@gsp.org"
K:G
GFGA B2 (Bc) | ded^c (dg) g2 | =FEFG A2 (Bc) |   dedc  (BG) G z |
GFGA B2 (Bc) | ded^c (dg)ga  | (bg)af (gd)de | (=fd)cA (BG) G z ||
gfga g2 (ga) | bgag fdde     | =fefg f2 (ce) |   dcBA  (BG) G z |
gfga g2 (ga) | bgag (fd)dg   | (bg)af (gd)de | (=fd)cA (BG) G z |]


